X:1
T:5 Lieder, Op. 6
T:Hast nicht ein einzig Mal zurückgeschaut
T:5 Lieder, Op. 6
T:Clara Faisst
T:2. Hast nicht ein einzig Mal zurückgeschaut
T:Anna Ritter
T:Creative Commons copyright waiver (CC0 1.0 Universal)
T:Creative Commons copyright waiver (CC0 1.0 Universal)
T:Creative Commons copyright waiver (CC0 1.0 Universal)
T:Creative Commons copyright waiver (CC0 1.0 Universal)
C:Clara Faisst
Z:Anna Ritter
Z:Creative Commons copyright waiver (CC0 1.0 Universal)
%%score 1 { ( 2 4 ) | ( 3 5 ) }
L:1/8
Q:1/4=80
M:2/4
K:A
V:1 treble nm="Voice\nGesang"
V:2 treble nm="Piano"
V:4 treble 
V:3 bass 
V:5 bass 
V:1
"^Sostenuto" z4 | z!p!!<(! F A c!<)! | d3/2 B/ G ^E | G3/2 C/ C C | C3 ^D | E4 | %6
w: |Hast nicht ein|ein- zig Mal zu-|rück ge- schaut, den|lan- gen|Weg!|
!mf! c2 A/ B/ c/ d/ | c e (B c/) d/ |!<(! c c c3/2 c/!<)! |[Q:1/4=82] c4 | z4 | z4 | z4 | z4 | %14
w: Froh schrit- test du da-|hin und sau- * gest|laut im Wald- ge-|heg.|||||
[Q:1/4=76] z4[Q:1/4=72] |"^più lento"[Q:1/4=70] C2"^espr." C C | D3/2 D/ D!<(! D!<)! | (=c2 B) A | %18
w: |Ich a- ber|nes- tel- te in|bit- * trem|
 G2 z E |!p! E3/2 E/ F/ G/ A/ B/ | d =c B/ A/ E/ A/ | F2 z2 | z4 | z2 z/!p! A/ A/ =c/ | ^D2 z2 | %25
w: Leid den|klei- nen Strauss ver- welk- ter|Veil- chen von dem wei- ssen|Kleid ||es war ja|aus!|
 z4 | z2"^più vivo"[Q:1/4=70] z!p! B | B3 B | =c3/2!<(! c/ c c | d2-!<)!!mf! (d e/) d/ | %30
w: |Und|rings auf|Er- den war es|Früh- * * ling|
 d2 z!mp!!<(! ^d | e3 B!<)! |!f! c3 z | z2 z!p! E | E3 E | F3/2 F/ F F | A3 F | E3!<(! c!<)! | %38
w: doch. auf|al- len|Höhn,|in|al- len|Thä- lern lag die|Son- ne|noch. so|
!f! c3 C | C3!p! (c |"^poco rit."[Q:1/4=68] c2-[Q:1/4=66] c/A/ G/F/ |[Q:1/4=64] F3) z | z4 | z4 | %44
w: wun- der-|\- schön, so|wun- * * der- *|\- schön!|||
 z4[Q:1/4=60] | z4 | z4 | !fermata!z4 |] %48
w: ||||
V:2
!p! !^![A,CF]4 | !^![CFc]4 | (!>!d>B G^E | G3) C | C3 ^D | [G,CE]4 | %6
!p!!<(! ([A,CE]2 [CA]/[EB]/[Ac]/[Bd]/) | ([ce]!<)!.[ca]) (e>e | %8
!<(! .[ce].[EAc]) ([^EBc]>[EBc]!<)! |"_più vivo" [F^Ac]2) ([^A,F]/[CG]/[FA]/[GB]/ | %10
 ([^Ac].[FAf]) [^EBc]>[EBc] |!>(! [F^Ac]2) ([Af]/[cg]/[f^a]/[gb]/ | [^ac'].[faf']) (c'>c'!>)! | %13
 [f^ac']2) (c>c |"_rit." [F^Ac]2)[I:staff +1] [^E,B,C]>C |"^più lento"!p![I:staff -1] ([=A,C]2 CC | %16
 =D>D!<(! DD!<)! | [_E=c]2 [DB][=CA] | [B,=EG]2)!>(! (=F!>)!E | E>E .^F/.G/.A/.B/ | %20
 d=c [DB]/[=CA]/[CE]/[CA]/) | [B,^DF]2 z/!p!!<(! ([FA]/[A=c]/[ce]/!<)! | %22
!mp!!>(! !>!e!>)!^d) z/!pp! ([FA]/[Ac]/[ce]/ | e^d) z2 | %24
 z2 x/!<(![I:staff +1] ([F,A,]/[A,=C]/[CE]/!<)! | %25
!mp!!>(![I:staff -1] E!>)!^D) x/[I:staff +1] ([F,A,]/[A,=C]/[CE]/ | %26
 [B,^D]2)"^più vivo"[I:staff -1] x2 |!pp! (3(B/G/E/(3B,/E/B,/ (3E/B,/E/(3B,/E/B,/) | %28
 (3(=c/=G/E/!<(!(3=C/E/C/ (3E/C/E/(3C/E/C/) | (3(d/=c/A/!mp!(3F/!<)!E/D/ (3F/D/F/(3D/F/D/) | %30
 (3(d/B/=G/(3D/G/D/ (3G/!<(!D/G/ (3^d/A/^D/) | (3(e/B/!<)!^G/!mf!(3E/G/E/ (3G/E/G/(3E/G/E/) | %32
 (3(e/!>(!c/A/(3E/C/E/ (3C/E/C/!p!(3E/!>)!C/E/) | (3(e/c/A/(3E/C/E/!pp! (3C/E/C/(3E/C/E/) | %34
 (3(E/C/E/(3C/E/C/ (3E/C/E/(3C/E/C/) | (3(F/C/A,/(3C/A,/C/ (3A,/C/A,/(3C/A,/C/) | %36
 (3(A/F/D/(3A,/D/A,/ (3D/A,/D/(3A,/D/A,/) | %37
 (3(A/E/C/!<(!(3A,/C/A,/ (3C/A,/C/)"^(quarter note in IMSLP)" (3:2:1[^EBc]3/2!<)! | %38
 ([c^ac'][cfa][^Acf][FAc])!f! | ([c^ac'][cfa][^Acf][FAc]) | %40
!p!"_poco rit." ([c=ac'][cfa][=Acf][FAc]) | ([cac'][cfa][Acf][FAc]) |"_dimin." ([cac']2 [cfa]2 | %43
!>(! [Acf]2 [FAc]2)!>)! |!pp! (c2"^ritard." A2- | A2 F2- | [A,CF]4) | !fermata![A,CF]4 |] %48
V:3
 [F,,F,]4 | [F,A,]4 | [G,B,]4 | F,2 ^E,2 | [F,,C,F,]4 | [C,,C,]4 | (A,,/E,/A,/E,/ A,/E,/A,/E,/) | %7
 (A,,/E,/A,/E,/ G,/E,/G,/E,/) | A,,/E,/A,/E,/ G,,/C,/G,/C,/ | F,,/C,/F,/C,/ F,/C,/F,/C,/ | %10
 F,,/C,/F,/C,/ G,/C,/G,/C,/ | F,,/C,/F,/C,/ F,/C,/F,/C,/ | F,,/C,/F,/C,/ G,/C,/G,/C,/ | %13
 F,,/C,/F,/C,/ G,/C,/G,/C,/ | F,,/C,/F,/C,/ G,/C,/G,/C,/ | F,,/C,/F,/C,/ F,/C,/F,/C,/ | %16
 F,,/D,/F,/D,/ F,/D,/F,/D,/ | =F,,/=C,/=F,/C,/ F,/C,/^D,,/^D,/ | E,,/B,,/F,/C,/ G,/E,/G,/E,/ | %19
 G,,/E,/G,/E,/ G,/E,/G,/E,/ | A,,/E,/A,/E,/ A,/E,/A,/A,,/ | B,,2 x/[I:staff -1] ^D/F/A/ | %22
 [A=c]2[I:staff +1] x/[I:staff -1] ^D/F/A/ |[I:staff +1] z4 | z2 z/ ^D,/F,/A,/ | %25
[I:staff -1] [A,=C]2!p![I:staff +1] z/ ^D,/F,/A,/ | %26
 (3(A,/F,/^D,/ (3B,,/D,/F,/) (3(A,/B,/D/[I:staff -1] (3F/A/B/) | %27
[I:staff +1] (3E,,/B,,/E,/(3G,/E,/G,/ (3E,/G,/E,/(3G,/E,/G,/ | %28
 (3(E,,/=G,,/=C,/(3E,/=G,/E,/ (3G,/E,/G,/(3E,/G,/E,/) | %29
 (3(D,,/A,,/D,/(3F,/A,/=C/ (3A,/C/A,/(3C/A,/C/) | %30
 (3(=G,,/B,,/D,/(3=G,/B,/G,/ (3B,/G,/G,,/) (3=F,,/=F,/A,/ | %31
 (3(E,,/B,,/E,/(3^G,/E,/G,/ (3E,/G,/E,/(3G,/E,/G,/) | %32
 (3(A,,/C,/E,/(3A,/E,/A,/ (3E,/A,/E,/(3A,/E,/A,/) | %33
 (3(A,,/C,/E,/(3A,/E,/A,/ (3E,/A,/E,/(3A,/E,/A,/) | %34
 (3(A,,/C,/E,/(3A,/E,/A,/ (3E,/A,/E,/(3A,/E,/A,/) | %35
 (3(F,,/C,/F,/(3C,/F,/C,/ (3F,/C,/F,/(3F,,/C,/F,/) | %36
 (3(D,,/A,,/D,/(3F,/D,/F,/ (3D,/F,/D,/(3F,/D,/F,/) | %37
 (3(A,,/C,/E,/(3C,/E,/C,/ (3E,/C,/E,/) (3(G,,/C,/G,/) | %38
 (3(F,,/C,/F,/(3^A,/F,/A,/ (3F,/A,/F,/(3A,/F,/C,/) | %39
 (3(F,,/C,/F,/(3^A,/F,/A,/ (3F,/A,/F,/(3A,/F,/C,/) | %40
 (3(F,,/C,/F,/(3=A,/F,/A,/ (3F,/A,/F,/(3A,/F,/C,/) | %41
 (3(F,,/C,/F,/(3A,/F,/A,/ (3F,/A,/F,/(3A,/F,/C,/) | %42
 (3(F,,/C,/F,/(3A,/F,/A,/ (3F,/A,/F,/(3A,/F,/C,/) | %43
 (3F,,/C,/F,/(3A,/F,/A,/ (3F,/A,/F,/(3A,/F,/C,/ | [F,,C,A,]4- | [F,,C,A,]4 | [F,,C,F,]4 | %47
 !fermata![F,,C,F,]4 |] %48
V:4
 x4 | x4 | D4 | B,4 | A,4 | x4 | x4 | x2 [Bd]c/d/ | x4 | x4 | x4 | x4 | x2 [^eb]2 | x2 [^EB]2 | %14
 x4 | x2 A,2 | [A,C]4 | x4 | x2 [B,=D]2 | [B,D]2 D2 | [EA]2 x2 | x4 | x4 | [A=c]2 x2 | x4 | x4 | %26
 x4 | x4 | x4 | x4 | x4 | x4 | x4 | x4 | x4 | x4 | x4 | x4 | x4 | x4 | x4 | x4 | x4 | x4 | [C-F]4 | %45
 C4 | x4 | x4 |] %48
V:5
 x4 | x4 | ^E,2 D,2 | C,4 | x4 | x4 | x4 | x4 | x4 | x4 | x4 | x4 | x4 | x4 | x4 | x4 | x4 | x4 | %18
 x4 | x4 | x4 | x4 | x4 | x4 | x4 | x4 | x4 | x4 | x4 | x4 | x4 | x4 | x4 | x4 | x4 | x4 | x4 | %37
 x4 | x4 | x4 | x4 | x4 | x4 | x4 | x4 | x4 | x4 | x4 |] %48

